src/components/Icon/utils/svgsOptimized/text-align-right.svg

<svg width="24" height="24" viewBox="0 0 24 24"  xmlns="http://www.w3.org/2000/svg">
<path d="M8.69999 6H17.7C17.8657 6 18 6.13431 18 6.3V6.9C18 7.06569 17.8657 7.2 17.7 7.2H8.69999C8.53431 7.2 8.39999 7.06569 8.39999 6.9V6.3C8.39999 6.13431 8.53431 6 8.69999 6Z" />
<path d="M17.7 14.1H8.69999C8.53431 14.1 8.39999 14.2343 8.39999 14.4V15C8.39999 15.1657 8.53431 15.3 8.69999 15.3H17.7C17.8657 15.3 18 15.1657 18 15V14.4C18 14.2343 17.8657 14.1 17.7 14.1Z" />
<path d="M17.7 16.8H12.3C12.1343 16.8 12 16.9343 12 17.1V17.7C12 17.8657 12.1343 18 12.3 18H17.7C17.8657 18 18 17.8657 18 17.7V17.1C18 16.9343 17.8657 16.8 17.7 16.8Z" />
<path d="M17.7 11.4H11.1C10.9343 11.4 10.8 11.5343 10.8 11.7V12.3C10.8 12.4657 10.9343 12.6 11.1 12.6H17.7C17.8657 12.6 18 12.4657 18 12.3V11.7C18 11.5343 17.8657 11.4 17.7 11.4Z" />
<path d="M6.3 8.70001H17.7C17.8657 8.70001 18 8.83433 18 9.00001V9.60001C18 9.7657 17.8657 9.90001 17.7 9.90001H6.3C6.13431 9.90001 6 9.7657 6 9.60001V9.00001C6 8.83433 6.13431 8.70001 6.3 8.70001Z" />
</svg>

<?xml version="1.0" encoding="utf-8"?><svg width="24" height="24" xmlns="http://www.w3.org/2000/svg" viewBox="0 0 24 24"><path d="M8.7 6h9a.3.3 0 0 1 .3.3v.6a.3.3 0 0 1-.3.3h-9a.3.3 0 0 1-.3-.3v-.6a.3.3 0 0 1 .3-.3Zm9 8.1h-9a.3.3 0 0 0-.3.3v.6a.3.3 0 0 0 .3.3h9a.3.3 0 0 0 .3-.3v-.6a.3.3 0 0 0-.3-.3Zm0 2.7h-5.4a.3.3 0 0 0-.3.3v.6a.3.3 0 0 0 .3.3h5.4a.3.3 0 0 0 .3-.3v-.6a.3.3 0 0 0-.3-.3Zm0-5.4h-6.6a.3.3 0 0 0-.3.3v.6a.3.3 0 0 0 .3.3h6.6a.3.3 0 0 0 .3-.3v-.6a.3.3 0 0 0-.3-.3ZM6.3 8.7h11.4a.3.3 0 0 1 .3.3v.6a.3.3 0 0 1-.3.3H6.3a.3.3 0 0 1-.3-.3V9a.3.3 0 0 1 .3-.3Z"/></svg>
